src/resources/icons/scalable/actions/cut-symbolic.svg

<?xml version="1.0" encoding="UTF-8"?>
<svg xmlns="http://www.w3.org/2000/svg" height="16px" viewBox="0 0 16 16" width="16px"><path d="m 12.066406 1 c -0.085937 -0.003906 -0.171875 0 -0.257812 0.015625 c -0.261719 0.054687 -0.492188 0.207031 -0.640625 0.425781 l -2.394531 3.558594 h 2.410156 l 1.644531 -2.441406 c 0.148437 -0.21875 0.203125 -0.488282 0.152344 -0.75 c -0.050781 -0.261719 -0.203125 -0.492188 -0.421875 -0.640625 c -0.144532 -0.097657 -0.316406 -0.152344 -0.492188 -0.167969 z m -9.066406 1 c -1.648438 0 -3 1.351562 -3 3 s 1.351562 3 3 3 h 3.753906 l -1.585937 2.355469 l -0.652344 0.96875 l -0.066406 0.097656 c 0 0.003906 -0.003907 0.007813 -0.003907 0.011719 c -0.28125 0.457031 -0.445312 0.992187 -0.445312 1.566406 c 0 1.648438 1.351562 3 3 3 s 3 -1.351562 3 -3 c 0 -1.386719 -0.960938 -2.566406 -2.25 -2.902344 l 1.414062 -2.097656 h 5.835938 c 0.550781 0 1 -0.449219 1 -1 s -0.449219 -1 -1 -1 h -9.175781 c 0.113281 -0.3125 0.175781 -0.648438 0.175781 -1 c 0 -1.648438 -1.351562 -3 -3 -3 z m 0 1.5 c 0.050781 0 0.101562 0.003906 0.148438 0.007812 h 0.003906 c 0.042968 0.003907 0.082031 0.011719 0.121094 0.019532 c 0.046874 0.007812 0.09375 0.015625 0.136718 0.03125 c 0.503906 0.136718 0.894532 0.527344 1.03125 1.03125 c 0.015625 0.042968 0.023438 0.089844 0.03125 0.136718 c 0.007813 0.039063 0.015625 0.078126 0.019532 0.121094 v 0.003906 c 0.003906 0.046876 0.007812 0.097657 0.007812 0.148438 c 0 0.132812 -0.015625 0.257812 -0.050781 0.382812 c 0 0.003907 0 0.007813 -0.003907 0.011719 c -0.03125 0.125 -0.082031 0.246094 -0.148437 0.355469 c -0.050781 0.089844 -0.109375 0.171875 -0.175781 0.25 h -0.015625 c -0.28125 0.316406 -0.683594 0.496094 -1.105469 0.5 c -0.136719 0 -0.265625 -0.019531 -0.390625 -0.050781 c -0.519531 -0.136719 -0.921875 -0.539063 -1.058594 -1.0625 c -0.03125 -0.121094 -0.050781 -0.25 -0.050781 -0.386719 s 0.019531 -0.265625 0.050781 -0.386719 c 0.136719 -0.523437 0.539063 -0.925781 1.058594 -1.0625 c 0.125 -0.03125 0.253906 -0.050781 0.390625 -0.050781 z m 4 8 c 0.050781 0 0.101562 0.003906 0.148438 0.007812 h 0.003906 c 0.042968 0.003907 0.082031 0.011719 0.121094 0.019532 c 0.046874 0.007812 0.09375 0.015625 0.136718 0.03125 c 0.503906 0.136718 0.894532 0.527344 1.03125 1.03125 c 0.015625 0.042968 0.023438 0.089844 0.03125 0.136718 c 0.007813 0.039063 0.015625 0.078126 0.019532 0.121094 v 0.003906 c 0.003906 0.046876 0.007812 0.097657 0.007812 0.148438 c 0 0.136719 -0.019531 0.265625 -0.050781 0.386719 c -0.136719 0.523437 -0.539063 0.925781 -1.0625 1.0625 c -0.121094 0.03125 -0.25 0.050781 -0.386719 0.050781 s -0.265625 -0.019531 -0.390625 -0.050781 c -0.519531 -0.136719 -0.921875 -0.539063 -1.058594 -1.0625 c -0.03125 -0.121094 -0.050781 -0.25 -0.050781 -0.386719 c 0 -0.019531 0 -0.039062 0 -0.054688 c 0.003906 -0.003906 0.003906 -0.003906 0.007812 -0.003906 c 0.035157 -0.71875 0.570313 -1.308594 1.28125 -1.414062 l 0.007813 -0.015625 c 0.066406 -0.007813 0.132813 -0.011719 0.203125 -0.011719 z m 0 0" fill="#222222"/></svg>

<svg
        xmlns='http://www.w3.org/2000/svg'
        xmlns:svg='http://www.w3.org/2000/svg'
        width='16px'
        height='16px'
        viewBox='0 0 16 16'>
  <path
          clip-path='none'
          fill='url(#gpa:foreground) rgb(0,0,0)'
          fill-opacity='1'
          fill-rule='nonzero'
          d='M 12.0664 1 C 11.9805 0.996094, 11.8945 1, 11.8086 1.01562 C 11.5469 1.07031, 11.3164 1.22266, 11.168 1.44141 L 8.77344 5 L 11.1836 5 L 12.8281 2.55859 C 12.9766 2.33984, 13.0312 2.07031, 12.9805 1.80859 C 12.9297 1.54688, 12.7773 1.31641, 12.5586 1.16797 C 12.4141 1.07031, 12.2422 1.01562, 12.0664 1 Z M 3 2 C 1.35156 2, 0 3.35156, 0 5 C 0 6.64844, 1.35156 8, 3 8 L 6.75391 8 L 5.16797 10.3555 L 4.51562 11.3242 L 4.44922 11.4219 C 4.44922 11.4258, 4.44531 11.4297, 4.44531 11.4336 C 4.16406 11.8906, 4 12.4258, 4 13 C 4 14.6484, 5.35156 16, 7 16 C 8.64844 16, 10 14.6484, 10 13 C 10 11.6133, 9.03906 10.4336, 7.75 10.0977 L 9.16406 8 L 15 8 C 15.5508 8, 16 7.55078, 16 7 C 16 6.44922, 15.5508 6, 15 6 L 5.82422 6 C 5.9375 5.6875, 6 5.35156, 6 5 C 6 3.35156, 4.64844 2, 3 2 Z M 3 3.5 C 3.05078 3.5, 3.10156 3.50391, 3.14844 3.50781 L 3.15234 3.50781 C 3.19531 3.51172, 3.23438 3.51953, 3.27344 3.52734 C 3.32031 3.53516, 3.36719 3.54297, 3.41016 3.55859 C 3.91406 3.69531, 4.30469 4.08594, 4.44141 4.58984 C 4.45703 4.63281, 4.46484 4.67969, 4.47266 4.72656 C 4.48047 4.76562, 4.48828 4.80469, 4.49219 4.84766 L 4.49219 4.85156 C 4.49609 4.89844, 4.5 4.94922, 4.5 5 C 4.5 5.13281, 4.48438 5.25781, 4.44922 5.38281 C 4.44922 5.38672, 4.44922 5.39062, 4.44531 5.39453 C 4.41406 5.51953, 4.36328 5.64062, 4.29688 5.75 C 4.24609 5.83984, 4.1875 5.92188, 4.12109 6 L 4.10547 6 C 3.82422 6.31641, 3.42188 6.49609, 3 6.5 C 2.86328 6.5, 2.73438 6.48047, 2.60938 6.44922 C 2.08984 6.3125, 1.6875 5.91016, 1.55078 5.38672 C 1.51953 5.26562, 1.5 5.13672, 1.5 5 C 1.5 4.86328, 1.51953 4.73438, 1.55078 4.61328 C 1.6875 4.08984, 2.08984 3.6875, 2.60938 3.55078 C 2.73438 3.51953, 2.86328 3.5, 3 3.5 Z M 7 11.5 C 7.05078 11.5, 7.10156 11.5039, 7.14844 11.5078 L 7.15234 11.5078 C 7.19531 11.5117, 7.23438 11.5195, 7.27344 11.5273 C 7.32031 11.5352, 7.36719 11.543, 7.41016 11.5586 C 7.91406 11.6953, 8.30469 12.0859, 8.44141 12.5898 C 8.45703 12.6328, 8.46484 12.6797, 8.47266 12.7266 C 8.48047 12.7656, 8.48828 12.8047, 8.49219 12.8477 L 8.49219 12.8516 C 8.49609 12.8984, 8.5 12.9492, 8.5 13 C 8.5 13.1367, 8.48047 13.2656, 8.44922 13.3867 C 8.3125 13.9102, 7.91016 14.3125, 7.38672 14.4492 C 7.26562 14.4805, 7.13672 14.5, 7 14.5 C 6.86328 14.5, 6.73438 14.4805, 6.60938 14.4492 C 6.08984 14.3125, 5.6875 13.9102, 5.55078 13.3867 C 5.51953 13.2656, 5.5 13.1367, 5.5 13 L 5.5 12.9453 C 5.50391 12.9414, 5.50391 12.9414, 5.50781 12.9414 C 5.54297 12.2227, 6.07812 11.6328, 6.78906 11.5273 L 6.79688 11.5117 C 6.86328 11.5039, 6.92969 11.5, 7 11.5 Z M 7 11.5'
          class='foreground foreground-fill'>
  </path>
</svg>
